packages/heroicons/src/prism/details.svg

<!-- Generated by IcoMoon.io -->
<svg version="1.1" xmlns="http://www.w3.org/2000/svg" width="16" height="16" viewBox="0 0 16 16">
<title>details</title>
<path fill="#4a4a4a" d="M16 1v1.975h-8v-1.975h8zM16 4.975v1.975h-8v-1.975h8zM16 9v1.975h-16v-1.975h16zM16 13v2h-16v-2h16zM3.725 6.95h-1.55c-1.2 0-2.175-0.975-2.175-2.175v-1.6c0-1.2 0.975-2.175 2.175-2.175h1.55c1.2 0 2.175 0.975 2.175 2.175v1.6c0.025 1.2-0.975 2.175-2.175 2.175z"></path>
</svg>

<svg xmlns="http://www.w3.org/2000/svg" aria-hidden="true" fill="currentColor" viewBox="0 0 16 16">
  <path d="M16 1v1.975H8V1h8zm0 3.975V6.95H8V4.975h8zM16 9v1.975H0V9h16zm0 4v2H0v-2h16zM3.725 6.95h-1.55C.975 6.95 0 5.975 0 4.775v-1.6C0 1.975.975 1 2.175 1h1.55c1.2 0 2.175.975 2.175 2.175v1.6c.025 1.2-.975 2.175-2.175 2.175z"/>
</svg>
